packages/nodes-base/nodes/Merge/merge.svg

<svg width="512" height="512" viewBox="0 0 512 512" fill="none" xmlns="http://www.w3.org/2000/svg">
<g clip-path="url(#clip0_1177_518)">
<path fill-rule="evenodd" clip-rule="evenodd" d="M0 48C0 21.4903 21.4903 0 48 0H112C138.51 0 160 21.4903 160 48V56H196.252C240.435 56 276.252 91.8172 276.252 136V192C276.252 214.091 294.161 232 316.252 232H352V224C352 197.49 373.49 176 400 176H464C490.51 176 512 197.49 512 224V288C512 314.51 490.51 336 464 336H400C373.49 336 352 314.51 352 288V280H316.252C294.161 280 276.252 297.909 276.252 320V376C276.252 420.183 240.435 456 196.252 456H160V464C160 490.51 138.51 512 112 512H48C21.4903 512 0 490.51 0 464V400C0 373.49 21.4903 352 48 352H112C138.51 352 160 373.49 160 400V408H196.252C213.925 408 228.252 393.673 228.252 376V320C228.252 294.784 238.859 272.044 255.853 256C238.859 239.956 228.252 217.216 228.252 192V136C228.252 118.327 213.925 104 196.252 104H160V112C160 138.51 138.51 160 112 160H48C21.4903 160 0 138.51 0 112V48ZM104 48C108.418 48 112 51.5817 112 56V104C112 108.418 108.418 112 104 112H56C51.5817 112 48 108.418 48 104V56C48 51.5817 51.5817 48 56 48H104ZM456 224C460.418 224 464 227.582 464 232V280C464 284.418 460.418 288 456 288H408C403.582 288 400 284.418 400 280V232C400 227.582 403.582 224 408 224H456ZM112 408C112 403.582 108.418 400 104 400H56C51.5817 400 48 403.582 48 408V456C48 460.418 51.5817 464 56 464H104C108.418 464 112 460.418 112 456V408Z" fill="#54B8C9"/>
</g>
<defs>
<clipPath id="clip0_1177_518">
<rect width="512" height="512" fill="white"/>
</clipPath>
</defs>
</svg>

<svg xmlns="http://www.w3.org/2000/svg" width="512" height="512" fill="none"><g clip-path="url(#a)"><path fill="#54B8C9" fill-rule="evenodd" d="M0 48C0 21.49 21.49 0 48 0h64c26.51 0 48 21.49 48 48v8h36.252c44.183 0 80 35.817 80 80v56c0 22.091 17.909 40 40 40H352v-8c0-26.51 21.49-48 48-48h64c26.51 0 48 21.49 48 48v64c0 26.51-21.49 48-48 48h-64c-26.51 0-48-21.49-48-48v-8h-35.748c-22.091 0-40 17.909-40 40v56c0 44.183-35.817 80-80 80H160v8c0 26.51-21.49 48-48 48H48c-26.51 0-48-21.49-48-48v-64c0-26.51 21.49-48 48-48h64c26.51 0 48 21.49 48 48v8h36.252c17.673 0 32-14.327 32-32v-56c0-25.216 10.607-47.956 27.601-64-16.994-16.044-27.601-38.784-27.601-64v-56c0-17.673-14.327-32-32-32H160v8c0 26.51-21.49 48-48 48H48c-26.51 0-48-21.49-48-48zm104 0a8 8 0 0 1 8 8v48a8 8 0 0 1-8 8H56a8 8 0 0 1-8-8V56a8 8 0 0 1 8-8zm352 176a8 8 0 0 1 8 8v48a8 8 0 0 1-8 8h-48a8 8 0 0 1-8-8v-48a8 8 0 0 1 8-8zM112 408a8 8 0 0 0-8-8H56a8 8 0 0 0-8 8v48a8 8 0 0 0 8 8h48a8 8 0 0 0 8-8z" clip-rule="evenodd"/></g><defs><clipPath id="a"><path fill="#fff" d="M0 0h512v512H0z"/></clipPath></defs></svg>
